dist/svg/static/geofence-alert-large.svg

<svg xmlns="http://www.w3.org/2000/svg" width="48" height="48" viewBox="0 0 48 48"><g fill="none" stroke="currentColor"><path stroke-linejoin="round" d="M35.5 8v6M35.5 16v2"/><path stroke-miterlimit="10" d="M45.5 20.5h-20l10-18z"/><g stroke-miterlimit="10"><path d="M26.39 9.59c-5.434-2.717-12.041-.515-14.758 4.918a11 11 0 0 0-1.162 4.972c0 6.09 11 21.27 11 21.27s6.79-9.34 9.71-16.31M23.64 14.4a5.51 5.51 0 1 0 .69 9.81"/></g><path stroke-miterlimit="10" d="M27.5 36.5c7.5.6 12.88 2.42 12.88 4.44 0 2.52-8.45 4.56-18.87 4.56s-18.87-2-18.87-4.56c0-2 5.37-3.83 12.88-4.44"/></g></svg>

<?xml version="1.0" encoding="UTF-8" standalone="no"?>
<svg width="48px" height="48px" viewBox="0 0 48 48" version="1.1" xmlns="http://www.w3.org/2000/svg" xmlns:xlink="http://www.w3.org/1999/xlink">
    <!-- Generator: sketchtool 46.2 (44496) - http://www.bohemiancoding.com/sketch -->
    <title>geofence-alert-large</title>
    <desc>Created with sketchtool.</desc>
    <defs></defs>
    <g id="icons-published" stroke="none" stroke-width="1" fill="none" fill-rule="evenodd">
        <g id="briefing" transform="translate(-3744.000000, -666.000000)"></g>
        <g id="geofence-alert-large" stroke="#000000">
            <path d="M35.5,8 L35.5,14 M35.5,16 L35.5,18" id="Shape" stroke-linejoin="round"></path>
            <polygon id="Shape" points="45.5 20.5 25.5 20.5 35.5 2.5"></polygon>
            <path d="M26.4,9.6 C21,6.9 14.4,9.1 11.6,14.5 C10.8,16 10.4,17.7 10.4,19.5 C10.4,25.6 21.4,40.8 21.4,40.8 C21.4,40.8 28.2,31.5 31.1,24.5 M23.6,14.4 C20.8,13.2 17.6,14.5 16.4,17.3 C15.2,20.1 16.5,23.3 19.3,24.5 C20.9,25.2 22.8,25 24.3,24.2" id="Shape"></path>
            <path d="M27.5,36.5 C35,37.1 40.4,38.9 40.4,40.9 C40.4,43.4 31.9,45.5 21.5,45.5 C11.1,45.5 2.6,43.5 2.6,40.9 C2.6,38.9 8,37.1 15.5,36.5" id="Shape"></path>
        </g>
    </g>
</svg>
